!!!!SEGMENT: pl-kk--kk-i-389--013_anonim--deo-gratias-per-8vas-in-a-no-3.krn
!!!cenid: 17xx:2532
!!!COM: Anonim
!!!COM-rismID: pe30004985
!!!CDT:
!!!CNT:
!!!OTL: Deo gratias per 8vas in A No. 3
!!!PDT:
!!!AGN: Sacred
!!!YEC: Copyright 2022 Narodowy Instytut Fryderyka Chopina (https://polishscores.org)
!!!YEM: License CC-BY-4.0 (https://creativecommons.org/licenses/by/4.0)
!!!SMS-siglum: PL-Kk
!!!SMS-shelfmark: Kk.I.389
!!!SMS-variant:
!!!SMS-altvar:
!!!SMS-shelfwork: 013 W
!!!NIFC-rismSourceID: 1001146182
!!!NIFC-rismChildID: 1001147257
!!!NIFC-islandoraID: pl-kk:6976
!!!URL-pdf-islandora: https://repozytorium.nifc.pl/islandora/object/pl-kk%3A6976/datastream/PDF/view
!!!URL-scan: https://polish.musicsources.pl/pl/lokalizacje/galeria/rekopisy/5999/1 @EN{Scan on Polish Music Sources Website} @PL{Skany w portalu Dziedzictwo Muzyki Polskiej w otwartym dostępie}
!!!IIIF:
!!!ONB-nifc: UWAGA: 5 Deo Gratias w zakresie skanów: S – 18-19, A – 37-38, T – 56-57, B – 75-76. Każdy numer w osobnym pliku.
!!!AIN: 1 alto 1 bass 1 soprn 1 tenor
!!!key:
**kern	**text	**kern	**text	**kern	**text	**kern	**text
*part4	*part4	*part3	*part3	*part2	*part2	*part1	*part1
*staff4	*staff4	*staff3	*staff3	*staff2	*staff2	*staff1	*staff1
*I"Basso.	*	*I"Tenore.	*	*I"Alto.	*	*I"Soprano.	*
*I'B.	*	*I'T.	*	*I'A.	*	*I'S.	*
*ICvox	*	*ICvox	*	*ICvox	*	*ICvox	*
*Ibass	*	*Itenor	*	*Ialto	*	*Isoprn	*
*clefF4	*	*clefC4	*	*clefC3	*	*clefC1	*
*k[]	*	*k[]	*	*k[]	*	*k[]	*
*a:	*	*a:	*	*a:	*	*a:	*
*M2/2	*	*M2/2	*	*M2/2	*	*M2/2	*
*met(C.)	*	*met(C.)	*	*met(C.)	*	*met(C.)	*
=1	=1	=1	=1	=1	=1	=1	=1
*	*	*	*	*	*	*all\right:global	*
1AA	De-	1A	De-	1e	De-	1ee	De-
=2	=2	=2	=2	=2	=2	=2	=2
*	*	*	*	*2\right	*	*2\right	*
2C/	.	1A	.	2e\	.	2ee\	.
2D/	.	.	.	2f\	.	4dd\	.
.	.	.	.	.	.	4cc\	-o
=3	=3	=3	=3	=3	=3	=3	=3
1E	.	1G#X	.	1g	.	1b	gra-
=4	=4	=4	=4	=4	=4	=4	=4
1AA	-o	1A	-o	2e\	-o	2.cc\	.
.	.	.	.	2e\	gra-	.	.
.	.	.	.	.	.	4cc\	-ti-
=5	=5	=5	=5	=5	=5	=5	=5
1A	gra-	1c	gra-	2e\	.	2cc\	-as,
.	.	.	.	2f\	.	2a\	De-
=6	=6	=6	=6	=6	=6	=6	=6
*2\right	*	*	*	*	*	*	*
2E\	.	1B	.	2g\	.	2b\	.
2G\	.	.	.	2e\	.	2g\	-o
=7	=7	=7	=7	=7	=7	=7	=7
2.F\	.	1A	.	2e\	.	1a	gra-
.	.	.	.	2d\	-ti-	.	.
4F\	-ti-	.	.	.	.	.	.
!	!	!LO:LB:g=original	!	!	!	!	!
=8	=8	=8	=8	=8	=8	=8	=8
1E	-as	1G#X	.	1e	-as,	1b	.
!LO:LB:g=original	!	!	!	!	!	!	!
=9	=9	=9	=9	=9	=9	=9	=9
2AA/	De-	0A	.	2e\	De-	2cc\	.
2D\	.	.	.	2f\	.	2dd\	.
=10	=10	=10-	=10	=10	=10	=10	=10
2C/	.	.	.	1e	-o	2a\	.
2AA/	-o	.	.	.	.	2cc\	.
!	!	!	!	!LO:LB:g=original	!	!LO:LB:g=original	!
=11	=11	=11	=11	=11	=11	=11	=11
2A\	gra-	1A	.	2e\	gra-	[y1cc	.
2AA/	.	.	.	2c\	.	.	.
=12	=12	=12	=12	=12	=12	=12	=12
!	!	!	!	!	!	!LO:N:xstem:cue	!
!	!	!	!	!	!	!LO:N:vis=4	!
1C	.	1Gn	.	1e	.	2cc\]	.
.	.	.	.	.	.	2cc\	-ti-
=13	=13	=13	=13	=13	=13	=13	=13
1D	.	1F	.	2e\	.	1a	-as,
.	.	.	.	2d\	.	.	.
=14	=14	=14	=14	=14	=14	=14	=14
1AA	.	1E	.	2d\	.	1a	De-
.	.	.	.	2c#X\	.	.	.
=15	=15	=15	=15	=15	=15	=15	=15
1BB-X	.	1D	-ti-	1d	.	2f/	.
.	.	.	.	.	.	2g\	.
!!linebreak:original
=16	=16	=16	=16	=16	=16	=16	=16
!	!	!LO:N:vis=0	!	!	!	!	!
1AA	.	1E	-as,	1cn	.	1a	.
=17	=17	=17	=17	=17	=17	=17	=17
2AA/	.	1G	De-	2c\	.	1a	-o
2C/	.	.	.	2e\	-ti-	.	.
=18	=18	=18	=18	=18	=18	=18	=18
2.BB/	.	1A	.	1d	-as,	1d	gra-
4BB/	-ti-	.	.	.	.	.	.
=19	=19	=19	=19	=19	=19	=19	=19
2AA/	-as	1E	-o	1c	De-	2e/	.
2A\	De-	.	.	.	.	4e/	.
.	.	.	.	.	.	4f/	.
!LO:LB:g=original	!	!	!	!	!	!	!
=20	=20	=20	=20	=20	=20	=20	=20
2G\	.	1D	.	2d\	.	2g\	.
2F\	.	.	.	2f\	.	2a\	.
=21	=21	=21	=21	=21	=21	=21	=21
2G\	.	1E	.	2e\	.	2b\	.
2E\	-o	.	.	2g\	.	2cc\	.
!	!	!LO:LB:g=original	!	!LO:LB:g=original	!	!LO:LB:g=original	!
=22	=22	=22	=22	=22	=22	=22	=22
1D	gra-	1F	.	2f\	.	2cc\	.
.	.	.	.	2d\	.	2b\	.
=23	=23	=23	=23	=23	=23	=23	=23
2C/	.	0G	.	1e	-o	1cc	.
2E\	.	.	.	.	.	.	.
=24	=24	=24-	=24	=24	=24	=24	=24
2BB/	.	.	.	2d\	gra-	2dd\	.
2C/	.	.	.	2e\	.	2cc\	.
=25	=25	=25	=25	=25	=25	=25	=25
1D	.	1F	gra-	2f\	.	1a	.
.	.	.	.	2g\	.	.	.
=26	=26	=26	=26	=26	=26	=26	=26
1AA	.	1E	.	2a\	.	[y1a	.
.	.	.	.	2e\	.	.	.
=27	=27	=27	=27	=27	=27	=27	=27
!	!	!	!	!	!	!LO:N:xstem:cue	!
!	!	!	!	!	!	!LO:N:vis=4	!
2.BB-X/	.	1D	.	2e\	.	2a\]	.
.	.	.	.	2d\	.	2g#X\	-ti-
4BB-/	-ti-	.	.	.	.	.	.
=28	=28	=28	=28	=28	=28	=28	=28
2AA/	-as,	1E	.	2d\	.	1a	-as De o
2A\	Deo	.	.	2c#X\	-ti-	.	.
=29	=29	=29	=29	=29	=29	=29	=29
!	!	!	!	!LO:N:vis=0	!	!	!
2.D\	gra-	2.F/	.	0.d	-as.	1a	gra-
4D\	-ti-	4F/	-ti-	.	.	.	.
=30	=30	=30	=30	=30-	=30	=30	=30
0D	-as.	0D	-as.	.	.	0a	-tias.
==	==	==	==	==	==	==	==
*-	*-	*-	*-	*-	*-	*-	*-
!!!system-decoration: [(s1,s2,s3,s4)]
!!!ENC: Berenika Jozajtis
!!!END: 2023-11-13
!!!ENC: Leszek Kubiak
!!!END: 2024-01-22
